X:174
T:RVW2/2/174 As I Walked Out
C:Mr. Broomfield, Herongate, Essex, 26 October 1904
L:1/8
Q:1/4=100
M:4/4
I:linebreak $
K:G
"^(Editorial suggestion)  " D2 | E2 B2 (BA) G2 | A2 (AG) E2 (gf) | e2 (dB) c2 d2 | e6 g2 |$ 
w: As|I walked out _ one|May mor- * ning so _|ear- ly _ in the|Spring I|
e2 e2 ddBB | A2 AF D2 EF | (GA)(!fermata!BA) (F>G) (A>G) | E4 z2 |] 
w: placed my back a- gainst the|old gar- den gate and I|heard _ my _ true _ love _|sing.|



